!!!AGN: Madrigal
!!!SCT: Maldeghem (1865)
!!!voices: 4
!!!COM: Jachet of Mantua
!!!OTL: O Jesu Christe miserere mei
**kern	**kern	**kern	**kern
*part4	*part3	*part2	*part1
*staff4	*staff3	*staff2	*staff1
*I"Bassus	*I"Tenor	*I"Altus	*I"Superius
*I'B	*I'T	*I'A	*I'S
*clefF4	*clefGv2	*clefG2	*clefG2
*k[]	*k[]	*k[]	*k[]
*C:	*C:	*C:	*C:
*M2/1	*M2/1	*M2/1	*M2/1
*met(C)	*met(C)	*met(C)	*met(C)
!!section: Prima pars: O Jesu Christe miserere mei
!!!OMD: Prima pars: O Jesu Christe miserere mei
0E	1G	1B	1e
.	1B	1e	1g
=1	=1	=1	=1
0C	1c	0e	0g
.	[1c	.	.
=2	=2	=2	=2
0F	1c]	0f	0a
.	2A	.	.
.	[2c	.	.
=3	=3	=3	=3
0G	2c]	0d	0g
.	4B	.	.
.	4A	.	.
.	1B	.	.
=4	=4	=4	=4
0C;	0c;	0e;	0g;
=5	=5	=5	=5
1.G	1.B	1.d	1.g
2G	2B	2d	2g
=6	=6	=6	=6
1G	1B	1d	1g
1C	1c	1e	1g
=7	=7	=7	=7
0D	0A	0d	0f
=8	=8	=8	=8
[0AA	1.A	1.c	0e
.	4G	4B	.
.	4F	4A	.
=9	=9	=9	=9
0AA]	[0E	2.c	2r
.	.	.	2cc
.	.	4d	.
.	.	[1e	2cc
.	.	.	2cc
=10	=10	=10	=10
1r	1E]	1e]	2b
.	.	.	2g
2r	1r	2d	[1a
2F	.	[2c	.
=11	=11	=11	=11
2F	2r	2c]	2a]
2F	2c	4B	2a
.	.	4A	.
2E	2c	[1e	[1g
2C	2c	.	.
=12	=12	=12	=12
2E	2B	1e]	1g]
2E	2G	.	.
1D	[1A	2r	1r
.	.	2f	.
=13	=13	=13	=13
0r	1A]	2f	2r
.	.	2f	2cc
.	1A	2e	2cc
.	.	2c	2cc
=14	=14	=14	=14
1r	1G	1.d	2b
.	.	.	2g
2r	1r	.	[1a
2F	.	2d	.
=15	=15	=15	=15
2F	2r	2c	2a]
2F	2c	4B	2a
.	.	4A	.
2E	2c	[1e	[1g
2C	2c	.	.
=16	=16	=16	=16
2E	2B	2e]	1g]
2E	2G	2c	.
[1D	[1A	[1d	2r
.	.	.	2f
=17	=17	=17	=17
1D]	1A]	1d]	2f
.	.	.	2f
2.AA	1A	[1c	2e
.	.	.	2c
4BB	.	.	.
=18	=18	=18	=18
0C	[0G	0c]	1.e
.	.	.	2e
=19	=19	=19	=19
0GG;	0G;]	0B;	0d;
=20	=20	=20	=20
1r	0r	1.c	0r
[1C	.	.	.
.	.	2c	.
=21	=21	=21	=21
2C]	1r	1c	1.g
2C	.	.	.
1C	[1G	1r	.
.	.	.	2g
=22	=22	=22	=22
1r	2G]	1.g	1g
.	2G	.	.
[1G	1G	.	1r
.	.	2g	.
=23	=23	=23	=23
2G]	1r	[0g	1.dd
2G	.	.	.
1G	[1d	.	.
.	.	.	2dd
=24	=24	=24	=24
[0G	2d]	0g]	1dd
.	2d	.	.
.	1d	.	[1b
=25	=25	=25	=25
1G]	1d	1g	1b]
1D	1d	1f	2a
.	.	.	2dd
=26	=26	=26	=26
0E	0G	0e	1.b
.	.	.	[2cc
=27	=27	=27	=27
0F	0A	1.c	4cc]
.	.	.	4b
.	.	.	4a
.	.	.	4g
.	.	.	1a
.	.	2d	.
=28	=28	=28	=28
0E;	0B;	0e;	0g;
=29	=29	=29	=29
0E	0G	0B	0e
=30	=30	=30	=30
1E	1G	1B	1e
1C	1E	1c	1e
=31	=31	=31	=31
1r	1r	1r	1r
[1A	[1c	[1e	[1a
=32	=32	=32	=32
1A]	1c]	1e]	1a]
1A	1c	1e	1a
=33	=33	=33	=33
1D	1A	1f	1a
[1A	[1c	[1e	[1a
=34	=34	=34	=34
2A]	0c]	2e]	0a]
2G	.	4f	.
.	.	4e	.
1F	.	1f	.
=35	=35	=35	=35
0C;	0c;	0e;	0g;
=36	=36	=36	=36
*M3/1	*M3/1	*M3/1	*M3/1
*met(3)	*met(3)	*met(3)	*met(3)
1C	1G	1c	1e
1C	1G	1c	1e
1C	1G	1c	1e
=37	=37	=37	=37
0GG	0G	0B	0d
1r	1r	1r	1r
=38	=38	=38	=38
1D	1A	1d	1f
1D	1A	1d	1f
1D	1A	1d	1f
=39	=39	=39	=39
1AA	1A	1c	1e
0AA	0c	[0e	0a
=40	=40	=40	=40
1E	1B	1e]	1g
0F	0A	[0c	1.f
.	.	.	2e
=41	=41	=41	=41
1C	1G	1c]	1.e
0D	0F	1.A	.
.	.	.	4d
.	.	.	4c
.	.	.	1d
.	.	2B	.
=42	=42	=42	=42
1AA	1E	1c	[0.el
0C	0c	1G	.
.	.	1A	.
=43	=43	=43	=43
1GG	1B	1B	0.e_
0AA	0A	0c	.
=44	=44	=44	=44
00El	00Gl	00Bl	00e]
==	==	==	==
*-	*-	*-	*-
!!!system-decoration: [*]
!!!RDF**kern: i = editorial accidental
!!!RDF**kern: l = terminal long
!!!ENC: Benjamin Ory
!!!END: 2022/2/10
!!!EED: Benjamin Ory
!!!EEV: 2022/02/10
!!!YEC: Copyright 2022 Benjamin Ory, All Rights Reserved
!!!ONB: Translated from MusicXML on 2022/02/10